X: 31988
T: Peekaboo
R: polka
M: 2/4
K: Aminor
|:AB cd|ec Ac|Bd cB|AB cd|
AB cd|ec Ac|Bd cB|A2 A2:|
|:ef ec|A/B/c/d/ ec|Bd cB|AB cd|
ef ec|A/B/c/d/ ec|Bd cB|A2 A2:|

